layout/bottom-panel/widgets/wifi/icons/wifi-strength-3.dark.svg

<svg enable-background="new 0 0 24.00 24.00" height="240" viewBox="0 0 24 24" width="240" xmlns="http://www.w3.org/2000/svg"><path d="m12.0025 2.9978c-4.215.0097-8.30125 1.41595-11.626247 4.0047 4.037497 5.0575 7.514997 9.37 11.635047 14.4862 4.0674-5.0675 8.228-10.2537 11.6362-14.4862-3.33-2.59375-7.4263-4-11.645-4.0047zm0 2.0022c3.0712.015 6.0838.85875 8.71 2.45125l-1.9475 2.43125c-1.5038-.89875-3.8875-1.885-6.7625-1.885-3.01375 0-5.3225 1.01125-6.7975 1.84625l-1.93375-2.4075c2.6375-1.58625 5.655-2.42625 8.73125-2.43625z" stroke-linejoin="round" stroke-width=".2"/></svg>

﻿<?xml version="1.0" encoding="utf-8"?>
<!DOCTYPE svg PUBLIC "-//W3C//DTD SVG 1.1//EN" "http://www.w3.org/Graphics/SVG/1.1/DTD/svg11.dtd">
<svg xmlns="http://www.w3.org/2000/svg" xmlns:xlink="http://www.w3.org/1999/xlink" version="1.1" baseProfile="full" width="240" height="240" viewBox="0 0 24.00 24.00" enable-background="new 0 0 24.00 24.00" xml:space="preserve">
	<path fill="#000000" fill-opacity="1" stroke-width="0.2" stroke-linejoin="round" d="M 12.0025,2.9978C 7.7875,3.0075 3.70125,4.41375 0.376253,7.0025C 4.41375,12.06 7.89125,16.3725 12.0113,21.4887C 16.0787,16.4212 20.2393,11.235 23.6475,7.0025C 20.3175,4.40875 16.2212,3.0025 12.0025,2.9978 Z M 12.0025,5C 15.0737,5.015 18.0863,5.85875 20.7125,7.45125L 18.765,9.8825C 17.2612,8.98375 14.8775,7.9975 12.0025,7.9975C 8.98875,7.9975 6.68,9.00875 5.205,9.84375L 3.27125,7.43625C 5.90875,5.85 8.92625,5.01 12.0025,5 Z "/>
</svg>
